X: 11542
T: Eddie Waters'
R: jig
M: 6/8
K: Dmajor
|:DFA BAF|dAF EDC|DFA BAF|dAF EGE|
DFA BAF|dAF EDC|DFA dAF|GEC D3:|
|:CDE GFE|D2 d AFD|CDE GFE|FAF GEC|
CDE GFE|D2 d AFD|dAF DEF|GEC D3:|

